apps/web/public/images/TechStudioHR-footer.svg

<svg width="1189" height="124" viewBox="0 0 1189 124" fill="none" xmlns="http://www.w3.org/2000/svg">
<path d="M29.9908 159.729V40.8757H-0.00010514V13.1063H94.1935V40.8757H64.2026V159.729H29.9908ZM138.996 162.839C101.674 162.839 90.7883 135.514 90.7883 102.19C90.7883 71.7552 100.119 39.3206 136.552 39.3206C171.431 39.3206 181.65 69.7558 177.873 105.967L124.778 107.522C125.222 127.516 128.777 137.957 137.885 137.957C144.55 137.957 149.437 132.181 148.771 119.741L179.206 121.962C180.983 138.179 174.096 162.839 138.996 162.839ZM136.33 65.5349C128.555 65.5349 125.444 73.3103 124.778 91.527L147.882 90.8605C148.326 70.8666 142.995 65.5349 136.33 65.5349ZM240.337 162.617C203.459 162.617 190.796 136.624 190.796 102.635C190.796 69.3115 203.237 39.0984 239.226 39.0984C267.884 39.0984 283.657 58.2038 282.768 80.8636L249.445 85.5288C249.445 73.9768 245.891 65.3127 237.893 65.3127C229.229 65.3127 225.008 75.3097 225.008 100.191C225.008 123.962 228.785 137.513 239.004 137.513C249.223 137.513 253 123.517 253 113.298L284.99 115.742C287.434 137.513 276.548 162.617 240.337 162.617ZM297.644 159.729V4.22013H330.079V28.435C330.079 41.7643 326.968 61.0918 323.636 76.6426H328.968C332.522 48.6511 340.964 39.3206 356.959 39.3206C386.506 39.3206 386.506 70.4223 386.506 88.4168V159.729H352.072V93.5264C352.072 81.3079 352.072 68.4229 343.186 68.4229C332.967 68.4229 331.856 84.8623 331.856 102.857V159.729H297.644ZM451.21 162.839C409.001 162.839 399.226 135.736 403.003 112.632L434.104 109.299C432.771 123.962 436.992 137.513 451.432 137.513C457.875 137.513 465.206 134.625 465.206 123.073C465.206 109.299 454.765 103.079 437.881 93.5264C419.442 83.0851 402.336 71.7552 402.336 48.6511C402.336 26.6578 417.665 10.6626 449.211 10.6626C485.422 10.6626 498.085 31.323 497.418 56.2044L466.539 60.2032C468.094 47.3182 460.763 36.4326 448.767 36.4326C440.769 36.4326 435.659 41.32 435.659 48.4289C435.659 59.0924 446.989 65.0906 457.875 70.6444C477.647 80.8636 498.974 94.415 498.974 122.184C498.974 143.511 486.755 162.839 451.21 162.839ZM555.892 162.172C532.121 162.172 518.126 148.843 518.126 119.963V68.4229H508.351V42.4308H513.905C524.346 42.4308 528.345 39.9871 529.9 31.7673L532.121 19.1045H551.449V42.4308H568.999V69.3115H551.449V112.854C551.449 124.184 556.114 129.738 562.334 129.738C564.778 129.738 567 129.293 570.332 128.627V159.729C565.667 161.061 561.89 162.172 555.892 162.172ZM614.615 162.839C585.291 162.839 585.291 131.071 585.291 112.854V42.4308H619.503V106.411C619.503 116.853 619.503 133.292 629.056 133.292C638.386 133.292 639.275 117.963 639.275 101.968V42.4308H673.709V159.729H648.605L647.717 124.628H642.163C639.053 152.175 631.277 162.839 614.615 162.839ZM727.527 162.839C707.978 162.839 690.65 139.957 690.65 100.191C690.65 60.6475 707.756 39.7649 726.194 39.7649C739.524 39.7649 749.965 51.0948 752.631 71.3109L757.963 71.5331C752.409 48.8733 750.187 35.7661 750.187 27.9907V4.22013H784.399V159.729H761.073L759.518 128.405H753.964C751.298 144.844 745.078 162.839 727.527 162.839ZM738.857 134.403C749.299 134.403 750.187 109.966 750.187 102.19V99.3024C750.187 96.4144 749.521 67.09 738.413 67.09C732.193 67.09 725.528 77.0869 725.528 100.635C725.528 124.406 732.193 134.403 738.857 134.403ZM823.276 30.2123C809.058 30.2123 802.616 25.1027 802.616 15.3279C802.616 5.33091 809.28 -0.000806061 823.276 -0.000806061C837.494 -0.000806061 843.714 5.55307 843.714 15.1057C843.714 25.1027 837.272 30.2123 823.276 30.2123ZM806.17 159.729V42.4308H840.16V159.729H806.17ZM903.257 162.839C871.711 162.839 857.049 140.179 857.049 100.191C857.049 57.9816 873.933 39.3206 904.146 39.3206C934.581 39.3206 949.91 58.2038 949.91 98.6359C949.91 143.067 932.582 162.839 903.257 162.839ZM903.479 137.513C911.477 137.513 915.698 128.849 915.698 102.19C915.698 75.9761 911.255 65.0906 903.257 65.0906C896.37 65.0906 891.483 73.0881 891.483 102.19C891.483 128.627 895.26 137.513 903.479 137.513ZM968.045 159.729V13.1063H1002.26V70.6444H1030.91V13.1063H1065.13V159.729H1030.91V98.6359H1002.26V159.729H968.045ZM1089.1 159.729V13.1063H1135.09C1146.2 13.1063 1185.96 14.6614 1185.96 57.9816C1185.96 75.754 1178.85 89.9719 1154.64 95.0815V97.0809C1175.3 100.191 1178.41 114.853 1182.41 131.737L1188.85 159.729H1153.08L1148.86 135.958C1146.2 121.074 1143.53 109.077 1130.2 109.077H1123.31V159.729H1089.1ZM1123.31 86.4174H1130.64C1145.08 86.4174 1151.53 78.8642 1151.53 61.7582C1151.53 46.8739 1145.75 40.2092 1131.53 40.2092H1123.31V86.4174Z" fill="#0266F3" fill-opacity="0.25"/>
</svg>

<svg xmlns="http://www.w3.org/2000/svg" fill="none" viewBox="0 0 1189 124"><path fill="#0266f3" fill-opacity=".25" d="M29.99 159.729V40.876H0v-27.77h94.194v27.77H64.203v118.853zm109.006 3.11c-37.322 0-48.208-27.325-48.208-60.649 0-30.435 9.331-62.87 45.764-62.87 34.879 0 45.098 30.436 41.321 66.647l-53.095 1.555c.444 19.994 3.999 30.435 13.107 30.435 6.665 0 11.552-5.776 10.886-18.216l30.435 2.221c1.777 16.217-5.11 40.877-40.21 40.877m-2.666-97.304c-7.775 0-10.886 7.775-11.552 25.992l23.104-.666c.444-19.994-4.887-25.326-11.552-25.326m104.007 97.082c-36.878 0-49.541-25.993-49.541-59.982 0-33.324 12.441-63.537 48.43-63.537 28.658 0 44.431 19.106 43.542 41.766l-33.323 4.665c0-11.552-3.554-20.216-11.552-20.216-8.664 0-12.885 9.997-12.885 34.878 0 23.771 3.777 37.322 13.996 37.322S253 123.517 253 113.298l31.99 2.444c2.444 21.771-8.442 46.875-44.653 46.875m57.307-2.888V4.22h32.435v24.215c0 13.33-3.111 32.657-6.443 48.208h5.332c3.554-27.992 11.996-37.322 27.991-37.322 29.547 0 29.547 31.101 29.547 49.096v71.312h-34.434V93.526c0-12.218 0-25.103-8.886-25.103-10.219 0-11.33 16.44-11.33 34.434v56.872zm153.566 3.11c-42.209 0-51.984-27.103-48.207-50.207l31.101-3.333c-1.333 14.663 2.888 28.214 17.328 28.214 6.443 0 13.774-2.888 13.774-14.44 0-13.774-10.441-19.994-27.325-29.547-18.439-10.44-35.545-21.77-35.545-44.875 0-21.993 15.329-37.988 46.875-37.988 36.211 0 48.874 20.66 48.207 45.541l-30.879 4c1.555-12.886-5.776-23.771-17.772-23.771-7.998 0-13.108 4.887-13.108 11.996 0 10.663 11.33 16.662 22.216 22.215 19.772 10.22 41.099 23.771 41.099 51.54 0 21.327-12.219 40.655-47.764 40.655m104.682-.667c-23.771 0-37.766-13.329-37.766-42.209v-51.54h-9.775V42.43h5.554c10.441 0 14.44-2.444 15.995-10.664l2.221-12.662h19.328V42.43h17.55v26.88h-17.55v43.543c0 11.33 4.665 16.884 10.885 16.884 2.444 0 4.666-.445 7.998-1.111v31.102c-4.665 1.332-8.442 2.443-14.44 2.443m58.723.667c-29.324 0-29.324-31.768-29.324-49.985V42.431h34.212v63.98c0 10.442 0 26.881 9.553 26.881 9.33 0 10.219-15.329 10.219-31.324V42.431h34.434v117.298h-25.104l-.888-35.101h-5.554c-3.11 27.547-10.886 38.211-27.548 38.211m112.912 0c-19.549 0-36.877-22.882-36.877-62.648 0-39.543 17.106-60.426 35.544-60.426 13.33 0 23.771 11.33 26.437 31.546l5.332.222c-5.554-22.66-7.776-35.767-7.776-43.542V4.22h34.212v155.508h-23.326l-1.555-31.324h-5.554c-2.666 16.439-8.886 34.434-26.437 34.434m11.33-28.436c10.442 0 11.33-24.437 11.33-32.213v-2.888c0-2.888-.666-32.212-11.774-32.212-6.22 0-12.885 9.997-12.885 33.545 0 23.771 6.665 33.768 13.329 33.768m84.419-104.19c-14.218 0-20.66-5.11-20.66-14.885 0-9.997 6.664-15.329 20.66-15.329 14.218 0 20.438 5.554 20.438 15.107 0 9.997-6.442 15.106-20.438 15.106M806.17 159.728V42.431h33.99v117.298zm97.087 3.11c-31.546 0-46.208-22.66-46.208-62.648 0-42.21 16.884-60.87 47.097-60.87 30.435 0 45.764 18.883 45.764 59.315 0 44.431-17.328 64.203-46.653 64.203m.222-25.326c7.998 0 12.219-8.664 12.219-35.323 0-26.214-4.443-37.1-12.441-37.1-6.887 0-11.774 7.998-11.774 37.1 0 26.437 3.777 35.323 11.996 35.323m64.566 22.216V13.106h34.215v57.538h28.65V13.106h34.22V159.73h-34.22V98.636h-28.65v61.093zm121.055 0V13.106h45.99c11.11 0 50.87 1.555 50.87 44.876 0 17.772-7.11 31.99-31.32 37.1v1.999c20.66 3.11 23.77 17.772 27.77 34.656l6.44 27.992h-35.77l-4.22-23.771c-2.66-14.884-5.33-26.881-18.66-26.881h-6.89v50.652zm34.21-73.312h7.33c14.44 0 20.89-7.553 20.89-24.659 0-14.884-5.78-21.549-20-21.549h-8.22z"/></svg>
